svgs/duotone/ruler-combined.svg

<svg xmlns="http://www.w3.org/2000/svg" viewBox="0 0 512 512"><!--! Font Awesome Pro 6.4.0 by @fontawesome - https://fontawesome.com License - https://fontawesome.com/license (Commercial License) Copyright 2023 Fonticons, Inc. --><defs><style>.fa-secondary{opacity:.4}</style></defs><path class="fa-primary" d="M112 96c-8.8 0-16 7.2-16 16s7.2 16 16 16l80 0V96H112zm80 96l-80 0c-8.8 0-16 7.2-16 16s7.2 16 16 16h80V192zm0 96l-80 0c-8.8 0-16 7.2-16 16s7.2 16 16 16l80 0v80c0 8.8 7.2 16 16 16s16-7.2 16-16V320H192V288zm128 32H288v80c0 8.8 7.2 16 16 16s16-7.2 16-16V320zm96 80V320H384v80c0 8.8 7.2 16 16 16s16-7.2 16-16z"/><path class="fa-secondary" d="M.2 468.9C2.7 493.1 23.1 512 48 512l96 0 320 0c26.5 0 48-21.5 48-48l0-96c0-26.5-21.5-48-48-48l-48 0 0 80c0 8.8-7.2 16-16 16s-16-7.2-16-16l0-80-64 0 0 80c0 8.8-7.2 16-16 16s-16-7.2-16-16l0-80-64 0 0 80c0 8.8-7.2 16-16 16s-16-7.2-16-16l0-80-80 0c-8.8 0-16-7.2-16-16s7.2-16 16-16l80 0 0-64-80 0c-8.8 0-16-7.2-16-16s7.2-16 16-16l80 0 0-64-80 0c-8.8 0-16-7.2-16-16s7.2-16 16-16l80 0 0-48c0-26.5-21.5-48-48-48L48 0C21.5 0 0 21.5 0 48L0 368l0 96c0 1.7 .1 3.3 .2 4.9z"/></svg>

<svg xmlns="http://www.w3.org/2000/svg" viewBox="0 0 512 512"><!--! Font Awesome Pro 6.3.0 by @fontawesome - https://fontawesome.com License - https://fontawesome.com/license (Commercial License) Copyright 2023 Fonticons, Inc. --><defs><style>.fa-secondary{opacity:.4}</style></defs><path class="fa-primary" d="M112 96H192V128H112C103.2 128 96 120.8 96 112C96 103.2 103.2 96 112 96zM192 224H112C103.2 224 96 216.8 96 208C96 199.2 103.2 192 112 192H192V224zM192 320H224V400C224 408.8 216.8 416 208 416C199.2 416 192 408.8 192 400V320H112C103.2 320 96 312.8 96 304C96 295.2 103.2 288 112 288H192V320zM320 320V400C320 408.8 312.8 416 304 416C295.2 416 288 408.8 288 400V320H320zM400 416C391.2 416 384 408.8 384 400V320H416V400C416 408.8 408.8 416 400 416z"/><path class="fa-secondary" d="M0 464V48C0 21.49 21.49 0 48 0H144C170.5 0 192 21.49 192 48V96H112C103.2 96 96 103.2 96 112C96 120.8 103.2 128 112 128H192V192H112C103.2 192 96 199.2 96 208C96 216.8 103.2 224 112 224H192V288H112C103.2 288 96 295.2 96 304C96 312.8 103.2 320 112 320H192V400C192 408.8 199.2 416 208 416C216.8 416 224 408.8 224 400V320H288V400C288 408.8 295.2 416 304 416C312.8 416 320 408.8 320 400V320H384V400C384 408.8 391.2 416 400 416C408.8 416 416 408.8 416 400V320H464C490.5 320 512 341.5 512 368V464C512 490.5 490.5 512 464 512H48C23.15 512 2.706 493.1 .2477 468.9C.0838 467.3 0 465.7 0 464z"/></svg>
